client/public/img/misc/mouse1_icon.svg

<?xml version="1.0" encoding="UTF-8" standalone="no"?>
<svg
   width="18"
   height="26"
   viewBox="0 0 18 26"
   fill="none"
   version="1.1"
   id="svg6"
   xmlns="http://www.w3.org/2000/svg"
   xmlns:svg="http://www.w3.org/2000/svg">
  <defs
     id="defs6" />
  <path
     d="M0.969993 19.1929L2.27678 18.7783C2.59719 19.8187 3.06762 20.8336 3.66504 21.7488L2.36845 22.2852C2.25949 22.3433 2.20235 22.3516 2.11107 22.182L0.88203 19.4358C0.823899 19.2863 0.829112 19.2326 0.969993 19.1929Z"
     fill="#333333"
     id="path1" />
  <path
     d="M0.711714 14.3779H1.81684C1.79654 14.8336 1.78853 15.2782 1.78853 15.679C1.78853 16.6073 1.93234 17.5758 2.2025 18.528L0.881947 18.6572C0.761565 18.6681 0.706644 18.6549 0.703233 18.4833L0.529197 14.5735C0.524903 14.4365 0.554299 14.3851 0.711714 14.3779Z"
     fill="#333333"
     id="path2" />
  <path
     d="M16.6488 7.8322C16.8119 8.91717 16.9845 10.0653 17.248 11.2402H11.4126V0.265625C15.5939 0.816587 16.0594 3.91203 16.6488 7.8322Z"
     fill="#333333"
     id="path3" />
  <path
     d="M10.9702 0.217584V11.2397H8.979V0.217588C9.29137 0.191218 9.6228 0.177734 9.9746 0.177734C10.3264 0.177734 10.6578 0.191217 10.9702 0.217584Z"
     fill="#FF0000"
     id="path4" />
  <path
     d="M8.53612 0.265625V11.2402H2.70068C2.9642 10.0653 3.13683 8.91719 3.29995 7.83223C3.88937 3.91205 4.35479 0.816603 8.53612 0.265625Z"
     fill="#333333"
     id="path5" />
  <path
     d="M17.3785 11.7932C17.3693 11.7563 17.3602 11.7195 17.3512 11.6826H2.59741L2.59434 11.6952C2.58898 11.7171 2.5836 11.7391 2.57818 11.761L2.57018 11.7932C2.30772 12.8488 2.23096 14.4494 2.23096 15.6791C2.23096 19.946 5.42609 25.1754 9.98007 25.1782C14.534 25.1754 17.7177 19.946 17.7177 15.6791C17.7177 14.4494 17.6409 12.8488 17.3785 11.7932Z"
     fill="#333333"
     id="path6" />
</svg>

<svg xmlns="http://www.w3.org/2000/svg" width="18" height="26" fill="none"><path fill="#333" d="m.97 19.193 1.307-.415c.32 1.04.79 2.056 1.388 2.97l-1.297.537c-.109.058-.166.067-.257-.103L.882 19.436c-.058-.15-.053-.203.088-.243m-.258-4.815h1.105c-.02.456-.028.9-.028 1.301 0 .928.143 1.897.414 2.849l-1.321.13c-.12.01-.175-.003-.179-.175l-.174-3.91c-.004-.136.025-.188.183-.195m15.937-6.546c.163 1.085.335 2.233.599 3.408h-5.835V.266c4.18.55 4.646 3.646 5.236 7.566"/><path fill="red" d="M10.97.218V11.24H8.98V.218q.468-.04.996-.04.527 0 .995.04"/><path fill="#333" d="M8.536.266V11.24H2.701c.263-1.175.436-2.323.599-3.408C3.89 3.912 4.355.817 8.536.266m8.843 11.527-.028-.11H2.597l-.003.012-.016.066-.008.032c-.262 1.056-.339 2.656-.339 3.886 0 4.267 3.195 9.496 7.75 9.5 4.553-.004 7.737-5.233 7.737-9.5 0-1.23-.077-2.83-.34-3.886"/></svg>
